X:353
T:El Quirosanu (CT 322)
R:Fandangu
C:Tradicional
S:Msica Tradicional Asturiana, (C) Tello & Tito. Asturies, 2001.
S:http://pagina.de/MusTradAst <telloytito@asturies.org>
N:Baile de gaita (Fandangu), transcrito en Uviu.
A:Asturies
O:Uviu
Z:Cancioneru de Torner 322
M:3/8
L:1/8
Q:3/8=72
K:G
[L:1/8]
[Q:1/4=60]
[M:7/4]
|d4 B {cB}A {BA}G {AG}F {GA}G2 {A/2B/2c/2}d4|
[L:1/8]
[Q:3/8=72]
[M:3/8]|
|:B G/B/G/B/|AFG|A F/A/F/A/|BGG|B G/B/G/B/|AFG|A F/A/F/A/|G2 d|
g g/g/g/g/|ece|g g/g/g/g/|dBB|e e/d/d/B/|cAA|d d/c/B/A/|BGd|
ggf|ece|ggf|d2 B|cec|FAF|cBA|G2 d|
g g/g/g/g/|ecc|g g/g/g/g/|dBB|e e/d/c/B/|cAA|d d/c/B/A/|BGB|
e e/d/c/B/|cAA|d d/c/B/A/|[1 G3:|[2 G d2-|d3|
